public/icons/icon.svg

<svg version="1.1" viewBox="0.0 0.0 960.010498687664 740.9238845144357" fill="none" stroke="none" stroke-linecap="square" stroke-miterlimit="10" xmlns:xlink="http://www.w3.org/1999/xlink" xmlns="http://www.w3.org/2000/svg"><clipPath id="p.0"><path d="m0 0l960.0105 0l0 740.9239l-960.0105 0l0 -740.9239z" clip-rule="nonzero"/></clipPath><g clip-path="url(#p.0)"><path fill="#000000" fill-opacity="0.0" d="m0 0l960.0105 0l0 740.9239l-960.0105 0z" fill-rule="evenodd"/><path fill="#000000" d="m291.24408 246.2441l0 0c0 -125.12946 84.50891 -226.56693 188.75592 -226.56693l0 0c50.061157 0 98.07196 23.870377 133.47058 66.35991c35.39862 42.489548 55.28534 100.11774 55.28534 160.20702l0 0c0 125.12947 -84.50891 226.56694 -188.75592 226.56694l0 0c-104.24701 0 -188.75592 -101.43747 -188.75592 -226.56694z" fill-rule="evenodd"/><path stroke="#000000" stroke-width="1.0" stroke-linejoin="round" stroke-linecap="butt" d="m291.24408 246.2441l0 0c0 -125.12946 84.50891 -226.56693 188.75592 -226.56693l0 0c50.061157 0 98.07196 23.870377 133.47058 66.35991c35.39862 42.489548 55.28534 100.11774 55.28534 160.20702l0 0c0 125.12947 -84.50891 226.56694 -188.75592 226.56694l0 0c-104.24701 0 -188.75592 -101.43747 -188.75592 -226.56694z" fill-rule="evenodd"/><path fill="#000000" d="m263.82678 405.19684l0 0c0 -66.38724 96.78403 -120.20471 216.17322 -120.20471l0 0c119.38916 0 216.17322 53.817474 216.17322 120.20471l0 0c0 66.38724 -96.78406 120.20471 -216.17322 120.20471l0 0c-119.38919 0 -216.17322 -53.817474 -216.17322 -120.20471z" fill-rule="evenodd"/><path stroke="#000000" stroke-width="1.0" stroke-linejoin="round" stroke-linecap="butt" d="m263.82678 405.19684l0 0c0 -66.38724 96.78403 -120.20471 216.17322 -120.20471l0 0c119.38916 0 216.17322 53.817474 216.17322 120.20471l0 0c0 66.38724 -96.78406 120.20471 -216.17322 120.20471l0 0c-119.38919 0 -216.17322 -53.817474 -216.17322 -120.20471z" fill-rule="evenodd"/><path fill="#ffffff" d="m610.3307 405.19684l0 0c0 -16.133667 13.078918 -29.212585 29.212646 -29.212585l0 0c7.7476196 0 15.1779785 3.0777588 20.656372 8.556183c5.4784546 5.478424 8.556213 12.908752 8.556213 20.656403l0 0c0 16.133698 -13.078918 29.212616 -29.212585 29.212616l0 0c-16.133728 0 -29.212646 -13.078918 -29.212646 -29.212616z" fill-rule="evenodd"/><path stroke="#000000" stroke-width="1.0" stroke-linejoin="round" stroke-linecap="butt" d="m610.3307 405.19684l0 0c0 -16.133667 13.078918 -29.212585 29.212646 -29.212585l0 0c7.7476196 0 15.1779785 3.0777588 20.656372 8.556183c5.4784546 5.478424 8.556213 12.908752 8.556213 20.656403l0 0c0 16.133698 -13.078918 29.212616 -29.212585 29.212616l0 0c-16.133728 0 -29.212646 -13.078918 -29.212646 -29.212616z" fill-rule="evenodd"/><path fill="#ffffff" d="m291.24408 405.19684l0 0c0 -16.133667 13.078949 -29.212585 29.212616 -29.212585l0 0c7.74765 0 15.178009 3.0777588 20.656433 8.556183c5.478424 5.478424 8.556152 12.908752 8.556152 20.656403l0 0c0 16.133698 -13.078918 29.212616 -29.212585 29.212616l0 0c-16.133667 0 -29.212616 -13.078918 -29.212616 -29.212616z" fill-rule="evenodd"/><path stroke="#000000" stroke-width="1.0" stroke-linejoin="round" stroke-linecap="butt" d="m291.24408 405.19684l0 0c0 -16.133667 13.078949 -29.212585 29.212616 -29.212585l0 0c7.74765 0 15.178009 3.0777588 20.656433 8.556183c5.478424 5.478424 8.556152 12.908752 8.556152 20.656403l0 0c0 16.133698 -13.078918 29.212616 -29.212585 29.212616l0 0c-16.133667 0 -29.212616 -13.078918 -29.212616 -29.212616z" fill-rule="evenodd"/><path fill="#000000" d="m406.17328 458.16165l0 0c12.609467 77.36264 -44.26651 151.46542 -127.97174 166.73227c-83.7052 15.266846 -163.49155 -33.9104 -179.52037 -110.649414l56.770615 -11.462158l0 0c9.797043 45.80017 59.720703 74.73749 112.372284 65.13452c52.65161 -9.602966 88.7215 -54.224365 81.18912 -100.43759z" fill-rule="evenodd"/><path stroke="#000000" stroke-width="1.0" stroke-linejoin="round" stroke-linecap="butt" d="m406.17328 458.16165l0 0c12.609467 77.36264 -44.26651 151.46542 -127.97174 166.73227c-83.7052 15.266846 -163.49155 -33.9104 -179.52037 -110.649414l56.770615 -11.462158l0 0c9.797043 45.80017 59.720703 74.73749 112.372284 65.13452c52.65161 -9.602966 88.7215 -54.224365 81.18912 -100.43759z" fill-rule="evenodd"/><path fill="#000000" d="m98.115486 514.2318l0 0c-4.6705017 -22.987244 4.488266 -44.251953 20.456688 -47.496063l0 0c7.668312 -1.5578918 15.913513 1.3331909 22.921768 8.037262c7.0082397 6.7040405 12.20546 16.671906 14.4483185 27.710754l0 0c4.6705017 22.987244 -4.4882812 44.251953 -20.456696 47.496094l0 0c-15.968422 3.2440796 -32.699577 -12.760864 -37.37008 -35.748047z" fill-rule="evenodd"/><path fill="#000000" d="m553.8268 458.16165l0 0c-12.609436 77.36264 44.26654 151.46542 127.97174 166.73227c83.7052 15.266846 163.49158 -33.9104 179.52039 -110.649414l-56.77063 -11.462158l0 0c-9.797058 45.80017 -59.720703 74.73749 -112.37225 65.13452c-52.65161 -9.602966 -88.7215 -54.224365 -81.18915 -100.43759z" fill-rule="evenodd"/><path stroke="#000000" stroke-width="1.0" stroke-linejoin="round" stroke-linecap="butt" d="m553.8268 458.16165l0 0c-12.609436 77.36264 44.26654 151.46542 127.97174 166.73227c83.7052 15.266846 163.49158 -33.9104 179.52039 -110.649414l-56.77063 -11.462158l0 0c-9.797058 45.80017 -59.720703 74.73749 -112.37225 65.13452c-52.65161 -9.602966 -88.7215 -54.224365 -81.18915 -100.43759z" fill-rule="evenodd"/><path fill="#000000" d="m861.8846 514.2318l0 0c4.670532 -22.987244 -4.4882812 -44.251953 -20.456665 -47.496063l0 0c-7.668335 -1.5578918 -15.913513 1.3331909 -22.921753 8.037262c-7.008301 6.7040405 -12.205505 16.671906 -14.448364 27.710754l0 0c-4.670471 22.987244 4.4882812 44.251953 20.456726 47.496094l0 0c15.968384 3.2440796 32.699585 -12.760864 37.370056 -35.748047z" fill-rule="evenodd"/><path fill="#000000" d="m459.39606 407.56308l0 0c38.1333 51.939697 35.72046 123.305084 -6.295685 186.20932c-42.016113 62.904236 -116.96591 107.36194 -195.56186 116.00073c-78.59599 8.638794 -148.36183 -19.912659 -182.03577 -74.4975l51.91712 -29.064026l0 0c23.054855 35.755615 72.84691 52.66272 129.84279 44.088684c56.99588 -8.574036 112.105255 -41.26172 143.70874 -85.239624c31.603516 -43.977966 34.660706 -92.23212 7.9721985 -125.83243z" fill-rule="evenodd"/><path stroke="#000000" stroke-width="1.0" stroke-linejoin="round" stroke-linecap="butt" d="m459.39606 407.56308l0 0c38.1333 51.939697 35.72046 123.305084 -6.295685 186.20932c-42.016113 62.904236 -116.96591 107.36194 -195.56186 116.00073c-78.59599 8.638794 -148.36183 -19.912659 -182.03577 -74.4975l51.91712 -29.064026l0 0c23.054855 35.755615 72.84691 52.66272 129.84279 44.088684c56.99588 -8.574036 112.105255 -41.26172 143.70874 -85.239624c31.603516 -43.977966 34.660706 -92.23212 7.9721985 -125.83243z" fill-rule="evenodd"/><path fill="#000000" d="m74.81646 635.1221l0 0c-11.588665 -20.845886 -9.052986 -44.191223 5.6635895 -52.14325l0 0c7.067154 -3.8187256 16.055565 -3.5043335 24.9879 0.8739624c8.932327 4.378296 17.076881 12.461853 22.64196 22.472412l0 0c11.588654 20.845886 9.0529785 44.191162 -5.6636047 52.14325l0 0c-14.716576 7.9520264 -36.041183 -2.5004883 -47.629845 -23.346375z" fill-rule="evenodd"/><path fill="#000000" d="m500.62885 407.56192l0 0c-38.131348 51.937683 -35.717316 123.30124 6.298828 186.2045c42.016113 62.90326 116.96466 107.36102 195.55865 116.00079c78.59393 8.639832 148.35736 -19.909729 182.0293 -74.492676l-51.914856 -29.063232c-23.05365 35.75421 -72.84436 52.659912 -129.83936 44.0849c-56.994995 -8.574951 -112.104004 -41.263 -143.70782 -85.24054c-31.60376 -43.977478 -34.661804 -92.23053 -7.9744873 -125.82941z" fill-rule="evenodd"/><path stroke="#000000" stroke-width="1.0" stroke-linejoin="round" stroke-linecap="butt" d="m500.62885 407.56192l0 0c-38.131348 51.937683 -35.717316 123.30124 6.298828 186.2045c42.016113 62.90326 116.96466 107.36102 195.55865 116.00079c78.59393 8.639832 148.35736 -19.909729 182.0293 -74.492676l-51.914856 -29.063232c-23.05365 35.75421 -72.84436 52.659912 -129.83936 44.0849c-56.994995 -8.574951 -112.104004 -41.263 -143.70782 -85.24054c-31.60376 -43.977478 -34.661804 -92.23053 -7.9744873 -125.82941z" fill-rule="evenodd"/><path fill="#000000" d="m885.22125 635.1188l0 0c11.5849 -20.847717 9.046692 -44.19232 -5.6693115 -52.141785l0 0c-7.0668945 -3.8174438 -16.054321 -3.5015259 -24.985168 0.8782959c-8.930847 4.3797607 -17.073608 12.464661 -22.636902 22.476074l0 0c-11.5849 20.847656 -9.046692 44.19232 5.6693115 52.141724l0 0c14.716003 7.949402 36.03711 -2.5066528 47.62207 -23.35431z" fill-rule="evenodd"/></g></svg>

<?xml version="1.0" encoding="UTF-8" standalone="no"?>
<!DOCTYPE svg PUBLIC "-//W3C//DTD SVG 1.1//EN" "http://www.w3.org/Graphics/SVG/1.1/DTD/svg11.dtd">
<svg width="100%" height="100%" viewBox="0 0 961 741" version="1.1" xmlns="http://www.w3.org/2000/svg" xmlns:xlink="http://www.w3.org/1999/xlink" xml:space="preserve" xmlns:serif="http://www.serif.com/" style="fill-rule:evenodd;clip-rule:evenodd;stroke-linejoin:round;stroke-miterlimit:2;">
    <g>
        <path d="M325.492,376.421C303.914,339.592 291.244,294.694 291.244,246.244C291.244,121.115 375.753,19.677 480,19.677C530.061,19.677 578.072,43.548 613.471,86.037C648.869,128.527 668.756,186.155 668.756,246.244C668.756,295.683 655.564,341.423 633.166,378.682C620.099,381.593 610.331,393.254 610.331,407.197C610.331,408.136 610.375,409.064 610.462,409.983C576.571,448.901 530.612,472.811 480,472.811C429.284,472.811 383.239,448.803 349.319,409.732C349.55,408.254 349.669,406.739 349.669,405.197C349.669,397.449 346.592,390.019 341.113,384.54C336.836,380.263 331.369,377.45 325.492,376.421Z"/>
        <path d="M263.827,405.197C263.827,338.81 360.611,284.992 480,284.992C599.389,284.992 696.173,338.81 696.173,405.197C696.173,471.584 599.389,525.402 480,525.402C360.611,525.402 263.827,471.584 263.827,405.197ZM610.331,407.197C610.331,391.063 623.41,377.984 639.543,377.984C647.291,377.984 654.721,381.062 660.2,386.54C665.678,392.019 668.756,399.449 668.756,407.197C668.756,423.331 655.677,436.409 639.543,436.409C623.41,436.409 610.331,423.331 610.331,407.197ZM291.244,405.197C291.244,389.063 304.323,375.984 320.457,375.984C328.204,375.984 335.635,379.062 341.113,384.54C346.592,390.019 349.669,397.449 349.669,405.197C349.669,421.331 336.59,434.409 320.457,434.409C304.323,434.409 291.244,421.331 291.244,405.197Z"/>
        <path d="M406.173,458.162C418.783,535.524 361.907,609.627 278.202,624.894C194.496,640.161 114.71,590.984 98.681,514.245L155.452,502.782C165.249,548.583 215.172,577.52 267.824,567.917C320.476,558.314 356.546,513.693 349.013,467.479L406.173,458.162Z"/>
        <path d="M98.115,514.232C93.445,491.245 102.604,469.98 118.572,466.736C126.24,465.178 134.486,468.069 141.494,474.773C148.502,481.477 153.699,491.445 155.942,502.484C160.613,525.471 151.454,546.736 135.486,549.98C119.517,553.224 102.786,537.219 98.115,514.232L98.115,514.232Z"/>
        <path d="M553.827,458.162C541.217,535.524 598.093,609.627 681.799,624.894C765.504,640.161 845.29,590.984 861.319,514.245L804.548,502.782C794.751,548.583 744.828,577.52 692.176,567.917C639.524,558.314 603.455,513.693 610.987,467.479L553.827,458.162Z"/>
        <path d="M861.885,514.232C866.555,491.245 857.396,469.98 841.428,466.736C833.76,465.178 825.514,468.069 818.506,474.773C811.498,481.477 806.301,491.445 804.058,502.484C799.387,525.471 808.546,546.736 824.515,549.98C840.483,553.224 857.214,537.219 861.885,514.232Z"/>
        <path d="M459.396,407.563C497.529,459.503 495.117,530.868 453.1,593.772C411.084,656.677 336.134,701.134 257.539,709.773C178.943,718.412 109.177,689.86 75.503,635.276L127.42,606.212C150.475,641.967 200.267,658.874 257.263,650.3C314.259,641.726 369.368,609.039 400.971,565.061C432.575,521.083 435.632,472.829 408.944,439.228L459.396,407.563Z"/>
        <path d="M74.816,635.122C63.228,614.276 65.763,590.931 80.48,582.979C87.547,579.16 96.536,579.475 105.468,583.853C114.4,588.231 122.545,596.315 128.11,606.325C139.699,627.171 137.163,650.516 122.446,658.468C107.73,666.421 86.405,655.968 74.816,635.122L74.816,635.122Z"/>
        <path d="M500.629,407.562C462.498,459.5 464.912,530.863 506.928,593.766C548.944,656.67 623.892,701.127 702.486,709.767C781.08,718.407 850.844,689.857 884.516,635.275L832.601,606.211C809.547,641.966 759.756,658.871 702.761,650.296C645.766,641.721 590.657,609.033 559.054,565.056C527.45,521.078 524.392,472.825 551.079,439.226L500.629,407.562Z"/>
        <path d="M885.221,635.119C896.806,614.271 894.268,590.926 879.552,582.977C872.485,579.16 863.498,579.475 854.567,583.855C845.636,588.235 837.493,596.32 831.93,606.331C820.345,627.179 822.883,650.524 837.599,658.473C852.315,666.423 873.636,655.966 885.221,635.119L885.221,635.119Z"/>
    </g>
</svg>
